X:Y Lili
M:4/4
L:1/8
K:Amajor
R:Reel
|:a2 ae f2 ed|c2 cA B2A2|
a2 ae f2 ed|cdcB A4:||
:cAeA cAeA|dBfB dBfB|
cAeA cAef|edcB A4:||
:c2 cA B2 BA|c2 cA B2 BA|
c2 cA B2 ef|edcB A4:||
